X: 27483
T: Molly Put The Kettle On
R: reel
M: 4/4
K: Adorian
|:cded cAAc|~B3d BGGB|cded cAAG|EDEG ~A3B|
cded cAAc|~B3d BGGB|BAAG AGED|EDEG ~A3B:|
|:cdef ~g4|aged cAAB|cdef g2 fd|eaag a3g|
B/c/def ~g4|aged cAAB|cded cAAG|EDEG A3B:|

